docs/image/icon/btn.svg

<svg width="151" height="54" viewBox="0 0 151 54" fill="none" xmlns="http://www.w3.org/2000/svg">
<rect width="151" height="54" rx="10" fill="#3670C7"/>
<path d="M79.414 18.237V34H77.544V22.417C77.544 22.263 77.5477 22.098 77.555 21.922C77.5697 21.746 77.5843 21.5663 77.599 21.383L72.187 31.239C72.0183 31.569 71.7617 31.734 71.417 31.734H71.109C70.7643 31.734 70.5077 31.569 70.339 31.239L64.817 21.339C64.861 21.7277 64.883 22.087 64.883 22.417V34H63.013V18.237H64.586C64.7767 18.237 64.9233 18.2553 65.026 18.292C65.1287 18.3287 65.2277 18.4313 65.323 18.6L70.768 28.302C70.856 28.478 70.9403 28.6613 71.021 28.852C71.109 29.0427 71.1897 29.237 71.263 29.435C71.3363 29.237 71.4133 29.0427 71.494 28.852C71.5747 28.654 71.6627 28.467 71.758 28.291L77.104 18.6C77.192 18.4313 77.2873 18.3287 77.39 18.292C77.5 18.2553 77.6503 18.237 77.841 18.237H79.414ZM90.0969 27.213C90.0969 26.7583 90.0309 26.344 89.8989 25.97C89.7742 25.5887 89.5872 25.2623 89.3379 24.991C89.0959 24.7123 88.7989 24.4997 88.4469 24.353C88.0949 24.199 87.6952 24.122 87.2479 24.122C86.3092 24.122 85.5649 24.397 85.0149 24.947C84.4722 25.4897 84.1349 26.245 84.0029 27.213H90.0969ZM91.6809 32.438C91.4389 32.7313 91.1492 32.988 90.8119 33.208C90.4746 33.4207 90.1116 33.5967 89.7229 33.736C89.3416 33.8753 88.9456 33.978 88.5349 34.044C88.1242 34.1173 87.7172 34.154 87.3139 34.154C86.5439 34.154 85.8326 34.0257 85.1799 33.769C84.5346 33.505 83.9736 33.1237 83.4969 32.625C83.0276 32.119 82.6609 31.4957 82.3969 30.755C82.1329 30.0143 82.0009 29.1637 82.0009 28.203C82.0009 27.4257 82.1182 26.6997 82.3529 26.025C82.5949 25.3503 82.9396 24.7673 83.3869 24.276C83.8342 23.7773 84.3806 23.3887 85.0259 23.11C85.6712 22.824 86.3972 22.681 87.2039 22.681C87.8712 22.681 88.4872 22.7947 89.0519 23.022C89.6239 23.242 90.1152 23.5647 90.5259 23.99C90.9439 24.408 91.2702 24.9287 91.5049 25.552C91.7396 26.168 91.8569 26.872 91.8569 27.664C91.8569 27.972 91.8239 28.1773 91.7579 28.28C91.6919 28.3827 91.5672 28.434 91.3839 28.434H83.9369C83.9589 29.138 84.0542 29.7503 84.2229 30.271C84.3989 30.7917 84.6409 31.228 84.9489 31.58C85.2569 31.9247 85.6236 32.185 86.0489 32.361C86.4742 32.5297 86.9509 32.614 87.4789 32.614C87.9702 32.614 88.3919 32.559 88.7439 32.449C89.1032 32.3317 89.4112 32.207 89.6679 32.075C89.9246 31.943 90.1372 31.822 90.3059 31.712C90.4819 31.5947 90.6322 31.536 90.7569 31.536C90.9182 31.536 91.0429 31.5983 91.1309 31.723L91.6809 32.438ZM103.546 22.857V34H101.577V28.786H96.2309V34H94.2619V22.857H96.2309V27.301H101.577V22.857H103.546ZM116.316 32.625C117.343 32.625 118.109 32.2583 118.615 31.525C119.121 30.7843 119.374 29.754 119.374 28.434C119.374 27.1067 119.121 26.0727 118.615 25.332C118.109 24.5913 117.343 24.221 116.316 24.221C115.29 24.221 114.523 24.5913 114.017 25.332C113.511 26.0727 113.258 27.1067 113.258 28.434C113.258 29.754 113.511 30.7843 114.017 31.525C114.523 32.2583 115.29 32.625 116.316 32.625ZM111.333 27.664C111.399 26.9013 111.557 26.212 111.806 25.596C112.063 24.98 112.404 24.4557 112.829 24.023C113.262 23.5903 113.768 23.2603 114.347 23.033C114.934 22.7983 115.59 22.681 116.316 22.681C117.094 22.681 117.794 22.8167 118.417 23.088C119.048 23.3593 119.583 23.7443 120.023 24.243C120.463 24.7417 120.801 25.3467 121.035 26.058C121.277 26.762 121.398 27.5503 121.398 28.423C121.398 29.303 121.277 30.095 121.035 30.799C120.793 31.503 120.449 32.1043 120.001 32.603C119.554 33.1017 119.019 33.4867 118.395 33.758C117.772 34.022 117.079 34.154 116.316 34.154C115.576 34.154 114.908 34.0367 114.314 33.802C113.728 33.5673 113.222 33.2337 112.796 32.801C112.371 32.361 112.03 31.8293 111.773 31.206C111.524 30.5827 111.374 29.8787 111.322 29.094H108.627V34H106.658V22.857H108.627V27.664H111.333Z" fill="white"/>
<g clip-path="url(#clip0_5105_11)">
<path d="M33 33H39V31H33V33ZM33 21V23H51V21H33ZM33 28H45V26H33V28Z" fill="white"/>
</g>
<defs>
<clipPath id="clip0_5105_11">
<rect width="24" height="24" fill="white" transform="translate(30 15)"/>
</clipPath>
</defs>
</svg>

<svg width="151" height="54" fill="none" xmlns="http://www.w3.org/2000/svg"><rect width="151" height="54" rx="10" fill="#3670C7"/><path d="M79.414 18.237V34h-1.87V22.417c0-.154.004-.319.011-.495l.044-.539-5.412 9.856c-.169.33-.425.495-.77.495h-.308c-.345 0-.601-.165-.77-.495l-5.522-9.9c.044.389.066.748.066 1.078V34h-1.87V18.237h1.573c.19 0 .337.018.44.055.103.037.202.14.297.308l5.445 9.702c.088.176.172.36.253.55.088.19.169.385.242.583a13.7 13.7 0 0 1 .231-.583c.08-.198.169-.385.264-.561l5.346-9.691c.088-.169.183-.271.286-.308.11-.037.26-.055.451-.055h1.573Zm10.683 8.976c0-.455-.066-.869-.198-1.243a2.636 2.636 0 0 0-.561-.979 2.368 2.368 0 0 0-.891-.638 2.964 2.964 0 0 0-1.2-.231c-.938 0-1.682.275-2.232.825-.543.543-.88 1.298-1.012 2.266h6.094Zm1.584 5.225c-.242.293-.532.55-.87.77-.336.213-.7.389-1.088.528-.381.14-.777.242-1.188.308-.41.073-.818.11-1.221.11a5.78 5.78 0 0 1-2.134-.385 4.833 4.833 0 0 1-1.683-1.144c-.47-.506-.836-1.13-1.1-1.87-.264-.74-.396-1.591-.396-2.552 0-.777.117-1.503.352-2.178a5.144 5.144 0 0 1 1.034-1.749 4.64 4.64 0 0 1 1.639-1.166c.645-.286 1.371-.429 2.178-.429.667 0 1.283.114 1.848.341.572.22 1.063.543 1.474.968.418.418.744.939.979 1.562.235.616.352 1.32.352 2.112 0 .308-.033.513-.1.616-.065.103-.19.154-.373.154h-7.447c.022.704.117 1.316.286 1.837.176.52.418.957.726 1.309.308.345.675.605 1.1.781a3.85 3.85 0 0 0 1.43.253c.491 0 .913-.055 1.265-.165.36-.117.667-.242.924-.374s.47-.253.638-.363c.176-.117.326-.176.45-.176a.43.43 0 0 1 .375.187l.55.715Zm11.865-9.581V34h-1.969v-5.214h-5.346V34h-1.97V22.857h1.97v4.444h5.346v-4.444h1.969Zm12.77 9.768c1.027 0 1.793-.367 2.299-1.1.506-.74.759-1.771.759-3.091 0-1.327-.253-2.361-.759-3.102-.506-.74-1.272-1.111-2.299-1.111-1.026 0-1.793.37-2.299 1.111-.506.74-.759 1.775-.759 3.102 0 1.32.253 2.35.759 3.091.506.733 1.273 1.1 2.299 1.1Zm-4.983-4.961a7.137 7.137 0 0 1 .473-2.068 4.917 4.917 0 0 1 1.023-1.573 4.395 4.395 0 0 1 1.518-.99c.587-.235 1.243-.352 1.969-.352.778 0 1.478.136 2.101.407a4.46 4.46 0 0 1 1.606 1.155c.44.499.778 1.104 1.012 1.815.242.704.363 1.492.363 2.365 0 .88-.121 1.672-.363 2.376a5.181 5.181 0 0 1-1.034 1.804 4.584 4.584 0 0 1-1.606 1.155c-.623.264-1.316.396-2.079.396-.74 0-1.408-.117-2.002-.352a4.397 4.397 0 0 1-1.518-1.001 5.021 5.021 0 0 1-1.023-1.595c-.249-.623-.399-1.327-.451-2.112h-2.695V34h-1.969V22.857h1.969v4.807h2.706Z" fill="#fff"/><g clip-path="url(#a)"><path d="M33 33h6v-2h-6v2Zm0-12v2h18v-2H33Zm0 7h12v-2H33v2Z" fill="#fff"/></g><defs><clipPath id="a"><path fill="#fff" transform="translate(30 15)" d="M0 0h24v24H0z"/></clipPath></defs></svg>
